gtk-icons/Papirus-Dark-GTK/16x16/actions/tab-close.svg

<?xml version="1.0" encoding="UTF-8" standalone="no"?>
<!-- Created with Inkscape (http://www.inkscape.org/) -->

<svg
   xmlns:osb="http://www.openswatchbook.org/uri/2009/osb"
   xmlns:dc="http://purl.org/dc/elements/1.1/"
   xmlns:cc="http://creativecommons.org/ns#"
   xmlns:rdf="http://www.w3.org/1999/02/22-rdf-syntax-ns#"
   xmlns:svg="http://www.w3.org/2000/svg"
   xmlns="http://www.w3.org/2000/svg"
   xmlns:sodipodi="http://sodipodi.sourceforge.net/DTD/sodipodi-0.dtd"
   xmlns:inkscape="http://www.inkscape.org/namespaces/inkscape"
   sodipodi:docname="tab-close.svg"
   inkscape:export-filename="/home/sam/source-symbolic.png"
   inkscape:export-xdpi="270"
   inkscape:export-ydpi="270"
   height="16"
   id="svg7384"
   style="enable-background:new"
   version="1.1"
   inkscape:version="0.91 r"
   width="16.000397">
  <sodipodi:namedview
     inkscape:bbox-nodes="true"
     inkscape:bbox-paths="false"
     bordercolor="#666666"
     borderlayer="false"
     borderopacity="1"
     inkscape:current-layer="layer12"
     inkscape:cx="0.36473"
     inkscape:cy="3.8162971"
     gridtolerance="10"
     inkscape:guide-bbox="true"
     guidetolerance="10"
     id="namedview88"
     inkscape:object-nodes="true"
     inkscape:object-paths="true"
     objecttolerance="10"
     pagecolor="#f7f7f7"
     inkscape:pageopacity="0"
     inkscape:pageshadow="2"
     showborder="true"
     showgrid="false"
     showguides="true"
     inkscape:showpageshadow="false"
     inkscape:snap-bbox="true"
     inkscape:snap-bbox-edge-midpoints="false"
     inkscape:snap-bbox-midpoints="true"
     inkscape:snap-center="false"
     inkscape:snap-global="true"
     inkscape:snap-grids="true"
     inkscape:snap-intersection-paths="true"
     inkscape:snap-midpoints="true"
     inkscape:snap-nodes="true"
     inkscape:snap-object-midpoints="true"
     inkscape:snap-others="true"
     inkscape:snap-page="false"
     inkscape:snap-smooth-nodes="true"
     inkscape:snap-to-guides="true"
     inkscape:window-height="842"
     inkscape:window-maximized="1"
     inkscape:window-width="1600"
     inkscape:window-x="-4"
     inkscape:window-y="32"
     inkscape:zoom="21.31">
    <inkscape:grid
       color="#ffffff"
       dotted="false"
       empcolor="#0800ff"
       empopacity="0.4627451"
       empspacing="4"
       enabled="true"
       id="grid4866"
       opacity="0.16470588"
       originx="-104"
       originy="-256.00336"
       snapvisiblegridlinesonly="true"
       spacingx="0.25px"
       spacingy="0.25px"
       type="xygrid"
       visible="true" />
  </sodipodi:namedview>
  <metadata
     id="metadata90">
    <rdf:RDF>
      <cc:Work
         rdf:about="">
        <dc:format>image/svg+xml</dc:format>
        <dc:type
           rdf:resource="http://purl.org/dc/dcmitype/StillImage" />
        <dc:title>Paper Symbolic Icon Theme</dc:title>
      </cc:Work>
    </rdf:RDF>
  </metadata>
  <title
     id="title8473">Paper Symbolic Icon Theme</title>
  <defs
     id="defs7386">
    <linearGradient
       id="linearGradient5606"
       osb:paint="solid">
      <stop
         id="stop5608"
         offset="0"
         style="stop-color:#ffffff;stop-opacity:1;" />
    </linearGradient>
  </defs>
  <g
     inkscape:groupmode="layer"
     id="layer12"
     inkscape:label="actions"
     style="display:inline"
     transform="translate(-345.0002,39.003359)">
    <path
       style="opacity:0.72;fill:#ffffff;fill-opacity:1;stroke:none"
       d="M 4 2.0039062 C 4 2.0039062 2 2.0039062 2 4.0039062 L 2 11.003906 C 2 12.003906 1 12.003906 1 12.003906 L 0 12.003906 L 0 14.003906 L 16 14.003906 L 16 12.003906 L 15 12.003906 C 15 12.003906 14 12.003906 14 11.003906 L 14 4.0039062 C 14 4.0039062 14 2.0039062 12 2.0039062 L 4 2.0039062 z M 6.5859375 5.1757812 L 8 6.5898438 L 9.4140625 5.1757812 L 10.828125 6.5898438 L 9.4140625 8.0039062 L 10.828125 9.4179688 L 9.4140625 10.832031 L 8 9.4179688 L 6.5859375 10.832031 L 5.171875 9.4179688 L 6.5859375 8.0039062 L 5.171875 6.5898438 L 6.5859375 5.1757812 z "
       transform="translate(345.0002,-39.003359)"
       id="path4140" />
  </g>
</svg>

<?xml version="1.0" encoding="UTF-8" standalone="no"?>
<!-- Created with Inkscape (http://www.inkscape.org/) -->
<svg id="svg7384" xmlns:rdf="http://www.w3.org/1999/02/22-rdf-syntax-ns#" style="enable-background:new" xmlns="http://www.w3.org/2000/svg" xmlns:osb="http://www.openswatchbook.org/uri/2009/osb" height="16" width="16" version="1.1" xmlns:cc="http://creativecommons.org/ns#" xmlns:dc="http://purl.org/dc/elements/1.1/">
 <metadata id="metadata90">
  <rdf:RDF>
   <cc:Work rdf:about="">
    <dc:format>image/svg+xml</dc:format>
    <dc:type rdf:resource="http://purl.org/dc/dcmitype/StillImage"/>
    <dc:title>Paper Symbolic Icon Theme</dc:title>
   </cc:Work>
  </rdf:RDF>
 </metadata>
 <title id="title8473">Paper Symbolic Icon Theme</title>
 <g id="layer12" transform="translate(-345 39.003)">
  <path id="path4140" opacity=".72" d="m4 2.0039s-2 0-2 2v7.0001c0 1-1 1-1 1h-1v2h16v-2h-1s-1 0-1-1v-7.0001s0-2-2-2h-8zm2.5859 3.1719l1.4141 1.414 1.4141-1.414 1.4139 1.414-1.4139 1.4141 1.4139 1.4141-1.4139 1.414-1.4141-1.414-1.4141 1.414-1.414-1.414 1.414-1.4141-1.414-1.4141 1.414-1.414z" transform="translate(345 -39.003)" fill="#fff"/>
 </g>
</svg>
